X:1
T:He Leadeth Me, LMD
T:He Leadeth Me, LMD
T:William Batchelder Bradbury, 1864
T:Public Domain Courtesy of the Cyber Hymnal™
C:William Batchelder Bradbury, 1864
Z:Public Domain
Z:Courtesy of the Cyber Hymnal™
%%score ( 1 2 ) ( 3 4 )
L:1/8
Q:1/4=108
M:4/4
K:D
V:1 treble 
V:2 treble 
V:3 bass 
V:4 bass 
V:1
 [FA]2 | [DF]3 [A,E] [A,D]2 [DA]2 | [DB]2 [DG]2 [DG]2 [GB]2 | [FA]3 [DF] [DF]2 (ED) | %4
 [DF]2 [DF]2 [CE]2 [CA]2 | [DF]3 [A,E] [A,D]2 [DA]2 | [DB]2 G2 [Gd]2 (cB) | %7
 [FA]2 [DF]2 ([DF][CE]) ([B,D][CE]) | [DF]3 [CE] D3 [FA]2 | [FA]2 [Dd]2 [Ec]2 [Ae]2 | %10
 [Ad]2 (cB) [FA]2 [GB]2 | [FA]2 [DF]2 ([DF][CE]) ([B,D][CE]) | [DF]2 [DF]2 [CE]2 [FA]2 | %13
 [FA]2 [Dd]2 [Ec]2 [Ae]2 | [Ad]2 (cB) [FA]2 [GB]2 | [FA]2 [DF]2 ([DF][CE]) ([B,D][CE]) | %16
 [DF]3 [CE] D2 |] %17
V:2
 x2 | x8 | x8 | x6 D2 | x8 | x8 | x6 G2 | x8 | x4 D3 x2 | x8 | x2 G2 x4 | x8 | x8 | x8 | x2 G2 x4 | %15
 x8 | x4 D2 |] %17
V:3
 [D,A,]2 | [D,A,]3 [D,G,] [D,F,]2 [D,F,]2 | G,2 [G,B,]2 [G,B,]2 [G,D]2 | %3
 [D,D]3 [D,A,] [D,A,]2 (G,F,) | [A,,A,]2 [A,,A,]2 [A,,A,]2 [A,,A,]2 | %5
 [D,A,]3 [D,G,] [D,F,]2 [D,F,]2 | G,2 [G,B,]2 [G,B,]2 [G,D]2 | [D,D]2 [D,A,]2 [B,,B,]2 [B,,F,]2 | %8
 [A,,A,]3 [A,,G,] [D,F,]3 [D,A,]2 | [D,D]2 [F,A,]2 A,2 [G,C]2 | [F,D]2 [G,D]2 [D,D]2 [D,D]2 | %11
 [D,D]2 [D,A,]2 [B,,B,]2 [B,,F,]2 | [A,,A,]2 [A,,A,]2 [A,,A,]2 [D,A,]2 | %13
 [D,D]2 [F,A,]2 A,2 [G,C]2 | [F,D]2 [G,D]2 [D,D]2 [D,D]2 | [D,D]2 [D,A,]2 [B,,B,]2 [B,,F,]2 | %16
 [A,,A,]3 [A,,G,] [D,F,]2 |] %17
V:4
 x2 | x8 | x8 | x6 D,2 | x8 | x8 | G,2 x6 | x8 | x9 | x8 | x8 | x8 | x8 | x8 | x8 | x8 | x6 |] %17

